X:1
T:ЦАРСКОСЕЛЬСКАЯ СТАТУЯ
T:Соч. 57, № 17
T:Слова А. ПУШКИНА
T:Ц. КЮИ (1835-1918) 
%%score 1 { ( 2 3 ) | 4 }
L:1/8
Q:1/4=92
M:3/8
K:Db
V:1 treble nm="Голос"
V:2 treble nm="Piano"
V:3 treble 
V:4 bass 
V:1
"^Andantino" z3 | z3 | z3 | z3 |!p! F3 | F2 F | F E D | F3 | z F F | F3/2!<(! F/ F | F E D!<)! | %11
w: ||||Ур-|ну во-|дой у- ро-|нив,|об у-|тес е- е|де- ва раз-|
 A2 A | z3 | B B c | B A =G | A3 | A _G F | G D E |"^poco riten."!>(! F3- | F3!>)! | %20
w: би- ла||Де- ва пе-|чаль- на си-|дит,|празд- ный дер-|жа че- ре-|нок.||
"^a tempo" z!f! F F | z z!mf! F | F E D | F3 | z A A |!<(! B A B | _c B c | =c2!<)! A | z!f! e2- | %29
w: Чу- до!|не|сяк- нет во-|да,|из- ли-|ва- ясь из|ур- ны раз-|би- той;|де-|
 e d =A | c B F | (A2 G) | z F2- | F!>(! F F | F3 | F2 A!>)! |!p!"^a tempo" A3- | A3- | A3- | A3- | %40
w: * ва, над|веч- ной стру-|ей, *|веч-|* но пе-|чаль-|на си-|дит.||||
 A z2 |] %41
w: |
V:2
 z3 | z3 | z3 | z3 | z3 | z3 | z3 | z3 | z3 | z3 | z3 | z3 | z3 | z3 | z3 | z3 | z3 | z3 | z3 | %19
 z3 | z3 | z3 | z3 | z3 | z3 |!<(! z3 | z3 | z3!<)! |!mf! z3 | z3 | z3 | z3 | z3 | z3 | z3 | z3 | %36
 z3 | z3 | z3 | z3!8va(! | d' z z |] %41
V:3
[I:staff +1] (D/F/[I:staff -1]A/c/d/f/) |[I:staff +1] (C/F/[I:staff -1]A/d/f/a/) | %2
[I:staff +1] (B,/F/[I:staff -1]A/c/d/f/) |[I:staff +1] (A,/F/[I:staff -1]A/d/f/a/) | %4
[I:staff +1] (D/F/[I:staff -1]A/c/d/f/) |[I:staff +1] (C/F/[I:staff -1]A/d/f/a/) | %6
[I:staff +1] (B,/F/[I:staff -1]A/c/d/f/) |[I:staff +1] (A,/F/[I:staff -1]A/d/f/a/) | %8
[I:staff +1] (D/F/[I:staff -1]A/c/d/f/) |[I:staff +1] (C/F/[I:staff -1]A/d/f/a/) | %10
[I:staff +1] (B,/F/[I:staff -1]A/c/d/f/) |[I:staff +1] (A,/F/[I:staff -1]A/d/f/a/) | %12
[I:staff +1] (=G,/F/[I:staff -1]B/d/f/b/) |[I:staff +1] (C/=E/[I:staff -1]B/c/=e/=g/) | %14
[I:staff +1] (F,/C/[I:staff -1]A/=e/f/a/) |[I:staff +1] (B,/E/[I:staff -1]A/B/=d/f/) | %16
[I:staff +1] (E,/B,/[I:staff -1]_G/=d/e/g/) |[I:staff +1] (G,/B,/[I:staff -1]E/B/c/e/) | %18
[I:staff +1] (F,/C/[I:staff -1]F/A/c/f/) |[I:staff +1] (A,,/C/[I:staff -1]G/A/c/f/) | %20
[I:staff +1] (D,/F,/[I:staff -1]A,/C/D/F/) |[I:staff +1] (C,/F,/[I:staff -1]A,/D/F/A/) | %22
[I:staff +1] (B,,/F,/[I:staff -1]A,/C/D/F/) |[I:staff +1] (A,,/F,/[I:staff -1]A,/D/F/A/) | %24
[I:staff +1] (G,,/G,/[I:staff -1]A,/C/E/A/) |[I:staff +1] ([F,,F,]/A,/[I:staff -1]B,/D/F/B/) | %26
[I:staff +1] ([_F,,_F,]/A,/[I:staff -1]_C/=D/A/_c/) | %27
[I:staff +1] ([E,,E,]/A,/[I:staff -1]=C/G/A/c/) |[I:staff +1] ([D,,D,]/F,/[I:staff -1]E/F/A/e/) | %29
[I:staff +1] ([F,,F,]/=A,/[I:staff -1]D/F/=A/d/) |[I:staff +1] ([G,,G,]/B,/[I:staff -1]D/F/G/B/) | %31
[I:staff +1] ([E,,E,]/G,/[I:staff -1]B,/=D/E/G/) |[I:staff +1] (F,,/C,/[I:staff -1]F,/=A,/C/F/) | %33
!>(![I:staff +1] (G,,/B,,/[I:staff -1]F,/B,/D/F/) |[I:staff +1] (=G,,/D,/[I:staff -1]F,/B,/D/F/) | %35
[I:staff +1] A,,,/C,/[I:staff -1]G,/A,/C/F/!>)! |[I:staff +1] D,,/A,,/D,/[I:staff -1]F,/A,/D/ | %37
!>(! F/[I:staff +1]F,/A,/D/[I:staff -1]F/A/ | d/[I:staff +1]F/A/d/[I:staff -1]f/a/ | %39
 d'/[I:staff +1]f/a/d'/!8va(![I:staff -1]f'/a'/!>)! |[I:staff +1] z3 |] %41
V:4
 D2 x | C2 x | B,2 x | A,2 x | D2 x | C2 x | B,2 x | A,2 x | D2 x | C2 x | B,2 x | A,2 x | =G,2 x | %13
 C2 x | F,2 x | B,2 x | E,2 x | G,2 x | F,2 x | A,,2 x | D,2 x | C,2 x | B,,2 x | A,,2 x | G,,2 x | %25
 [F,,F,]3 | [_F,,_F,]3 | [E,,E,]3 | [D,,D,]3 | [F,,F,]3 | [G,,G,]3 | [E,,E,]3 | F,,3 | G,,3 | %34
 =G,,3 | A,,,3 | D,,3 | x3 |[K:treble] x3 | x3 | x3!8va)! |] %41

